modules/entypo/icons/sweden.svg

<svg height="1000" width="900" xmlns="http://www.w3.org/2000/svg"><path d="M850 200c13.333 0 25 5 35 15s15 21.667 15 35v200H400V200h450M0 750V550h300v250H40c-26.667 0-40-16.667-40-50m400 50V550h500v200c0 14.667-4.667 26.667-14 36-9.333 9.333-21.333 14-36 14H400M0 250c0-33.333 13.333-50 40-50h260v250H0V250"/></svg>

<svg height="1000px" width="900px" xmlns="http://www.w3.org/2000/svg">
  <g>
    <path d="M850 200c13.333 0 25 5 35 15c10 10 15 21.667 15 35c0 0 0 200 0 200c0 0 -500 0 -500 0c0 0 0 -250 0 -250c0 0 450 0 450 0c0 0 0 0 0 0m-850 550c0 0 0 -200 0 -200c0 0 300 0 300 0c0 0 0 250 0 250c0 0 -260 0 -260 0c-26.667 0 -40 -16.667 -40 -50c0 0 0 0 0 0m400 50c0 0 0 -250 0 -250c0 0 500 0 500 0c0 0 0 200 0 200c0 14.667 -4.667 26.667 -14 36c-9.333 9.333 -21.333 14 -36 14c0 0 -450 0 -450 0c0 0 0 0 0 0m-400 -550c0 -33.333 13.333 -50 40 -50c0 0 260 0 260 0c0 0 0 250 0 250c0 0 -300 0 -300 0c0 0 0 -200 0 -200c0 0 0 0 0 0" />
  </g>
</svg>
